icons/volunteer-service-projects.svg

<svg
  xmlns="http://www.w3.org/2000/svg"
  viewBox="0 0 500 500"
  width="500"
  height="500"
  fill="#ffffff"
>
  <path d="M376.9 439v56H230l-2-.2v.2h-25.5v-25.9l-.3-1.9v-55.9h146.9a27.8 27.8 0 0 1 27.8 27.7zM228 453.1a12.1 12.1 0 1 0 12.2-11.9h-.2a12 12 0 0 0-12 11.9z" />
  <path d="M182.3 103h-.1l2.2 97.9.2.2 1.2 51.4-29.4-39.7a17.6 17.6 0 0 0-31.4 15.6l1.8 3 64.4 101.2.3-.2a32.2 32.2 0 0 0 28.9 16.3l17.4-.4v46.9h96v-46.4c.3-1.2 15.6-8.8 15.6-73.6l-5.2-206.9c-.1-8.4-6.2-15.1-13.5-14.9s-13 7.2-12.8 15.7l2.7 96.3a48.9 48.9 0 0 0-6.6-.5h-3.7l-3.7-139.5c-.3-10.1-7.5-18.1-16.3-17.9s-15.4 8.6-15.2 18.8l3.7 139.6-16 .5-3.9-143.6c-.1-10-7.4-18-16.1-17.8s-15.5 8.7-15.3 18.8l3.8 143.5-15.1.5h-1l-3.5-131.4c-.3-10.1-7.4-18.2-16.2-17.8s-13.4 6.3-14.9 14.2z" />
</svg>

<svg xmlns="http://www.w3.org/2000/svg" viewBox="0 0 500 500">
  <g id="volunteer-service-projects">
    <path id="cuff" d="M376.9,439v56H230l-2-.2v.2H202.5V469.1l-.3-1.9V411.3H349.1A27.8,27.8,0,0,1,376.9,439ZM228,453.1a12.1,12.1,0,1,0,12.2-11.9H240A12,12,0,0,0,228,453.1Z"/>
    <path id="hand" d="M182.3,103h-.1l2.2,97.9.2.2,1.2,51.4-29.4-39.7A17.6,17.6,0,0,0,125,228.4l1.8,3,64.4,101.2.3-.2a32.2,32.2,0,0,0,28.9,16.3l17.4-.4v46.9h96V348.8c.3-1.2,15.6-8.8,15.6-73.6L344.2,68.3c-.1-8.4-6.2-15.1-13.5-14.9s-13,7.2-12.8,15.7l2.7,96.3a48.9,48.9,0,0,0-6.6-.5h-3.7L306.6,25.4c-.3-10.1-7.5-18.1-16.3-17.9s-15.4,8.6-15.2,18.8l3.7,139.6-16,.5L258.9,22.8c-.1-10-7.4-18-16.1-17.8s-15.5,8.7-15.3,18.8l3.8,143.5-15.1.5h-1L211.7,36.4c-.3-10.1-7.4-18.2-16.2-17.8s-13.4,6.3-14.9,14.2Z"/>
  </g>
</svg>
